Modules/BetterCms.Module.Root/Scss/base_64/icons/cp-delete.svg

<svg xmlns="http://www.w3.org/2000/svg" width="14" height="15" viewBox="0 0 14 15">
 <g fill-rule="evenodd">
  <path fill="#311807" d="m14.009 12.683l-2.494 2.32-4.543-5.005-4.81 5.011-2.165-2.671 4.676-4.873-4.677-5.153 2.493-2.32 4.548 5.011 4.805-5.008 2.165 2.672-4.671 4.868 4.673 5.148"/>
  <path fill="#672903" d="m14.008 12.838l-2.315 2.165-4.219-4.672-4.466 4.678-2.01-2.494 4.342-4.547-4.344-4.81 2.315-2.165 4.223 4.676 4.463-4.673 2.01 2.493-4.338 4.544 4.339 4.805"/>
 </g>
</svg>

<svg xmlns="http://www.w3.org/2000/svg" preserveAspectRatio="xMidYMid" width="14" height="15" viewBox="0 0 14 15">
  <g>
    <path fill="#311807" fill-rule="evenodd" d="M14.009,12.683 L11.515,15.003 L6.972,9.998 L2.162,15.009 L-0.003,12.338 L4.673,7.465 L-0.004,2.312 L2.489,-0.008 L7.037,5.003 L11.842,-0.005 L14.007,2.667 L9.336,7.535 L14.009,12.683 Z"/>
    <path fill="#672903" fill-rule="evenodd" d="M14.008,12.838 L11.693,15.003 L7.474,10.331 L3.008,15.009 L0.998,12.515 L5.340,7.968 L0.996,3.158 L3.311,0.993 L7.534,5.669 L11.997,0.996 L14.007,3.489 L9.669,8.033 L14.008,12.838 Z"/>
  </g>
</svg>
